X:1
T:Final Fantasy VII
T:Final Fantasy VII
T:Tifa Theme
T:Nobuo Uematsu
T:Arranged by - Keyshawn M. Hale
T:Copyright © 2019
T:Copyright © 2019
T:Copyright © 2019
T:Copyright © 2019
C:Nobuo Uematsu
Z:Arranged by - Keyshawn M. Hale
Z:Copyright © 2019
%%score 1 { 2 | 3 } ( 4 5 ) 6
L:1/8
Q:1/4=80
M:4/4
K:F
V:1 treble+8 nm="Ocarina" snm="Oc."
V:2 treble nm="Harp" snm="Hrp."
V:3 bass 
V:4 bass nm="Violoncello" snm="Vc."
V:5 bass 
V:6 bass transpose=-12 nm="Contrabass" snm="Cb."
V:1
 z8 | z8 | z8 | z8 |!mf! (f4 c4) | (_d4 B4) | (B/A/B/A/ F6-) | F2 z2 z4 | c8 | (_d6 B2) | A8- | %11
 A2 z2 z4 | (cAcf) z (agf) | (GB_dg) z (d B2) | (BAGA-) A2 F2 | (G/A/G-) G6 | z4 z C(AG) | %17
 (A C3) z C(AG) | (A _D3) z (D_ED) | C8 | z4 z C(AG) | (A C3-) CC(AG) | (A c3-) cA(fe | d8) | %24
 z4 z DBA | (B D3) z D(BA) | (B G3) z (GFG) | A8 | z4 z2 A2 | (AG^FG) B2 (AG) | (G2 F4) (DF | G8) | %32
 z4 z C(AG) | (A C3) z C(AG) | (A _D3) z (D_ED | C6) z (F/4A/4c/4e/4 | c2) z f- f(cAG) | %37
 (A C3) z C(AG) | (A c3) z F(fe) | (d4 A4 | B4) z D(BA) | (B D3) z D(BA) | (B G3) z (GFG | A8) | %44
 z4 z2[Q:1/4=73] c2 | (cBAB d2) (cB) | (B2 A4) (FA |[Q:1/4=65] =B8) | z4 z2{/G} g z |] %49
V:2
!ped! z8 | z8 | z8 | z8!ped-up! |!ped! f4 c4 | _d4 B4 | BA f6 | z8!ped-up! |!ped! [Fc]8 | %9
 [_DG]6 B2 | [FA]8 | z8!ped-up! | FAcf z agf | _DB_dg z d B2 | BAGA- A2 F2 | G/A/G- G6 | z4 z cag | %17
 (a c3) z c(ag) |!ped! (a _d3) z (d_ed) | c8 | z2 z G2!ped-up! [Fc][Ca]g | a c3- ccag | %22
 a c'3- c'af'e' | d'8!ped! | z8!ped-up! | (b d3) z d(ba) | (bg) z2 z (gfg) | a8 | z4 z2 a2 | %29
 a!ped!g^fg b2 ag | g2 f4 df | g8 | z4 z cag!ped-up! | [cfa][Ac] z2 z [FAc][ca]g | %34
 [fa][B_d] z2 z [Bd][c_e][Bd] |!ped! [Ac]6 F/4A/4c/4e/4f/4a/4c'/4e'/4!ped-up! | %36
 c'2-!ped! c'f'- f'cag | [cfa][Ac] z2 z cag | [cea][eac'] z2 z f[ac'f']e'!ped-up! | %39
 !arpeggio![dbd']4!ped! !arpeggio![fa]4 | !arpeggio![dgb]4 z [Dd][Bdgb][Aa]!ped-up! | %41
 [Bdgb][Dd] z2 z [Dd][Bb][Aa] | [Bgb][Gcg] z2 z [Gcg][Ff][Gg] | !arpeggio![Acfa]8 | z4 z2 [cac']2 | %45
 [cac']!ped![Bgb][A^fa][Bgb] [dbd']2 [cac'][Bgb] | [Bgb]2 [Afa]4 [Fdf][Afa] | !arpeggio![=Bg=b]8 | %48
 z8!ped-up! |] %49
V:3
!mp!!<(! F,,C,F,A,- A,4 | F,,_D,F,B,- B,4!<)! |!mf!!>(! F,,C,F,A,- A,4 | F,,C,F,A,- A,4!>)! | %4
!mp! F,,C,F,A,- A,4 | F,,_D,F,B,- B,4 | F,,C,F,A,- A,4 | F,,C,F,A,- A,4 | F,,C,F,A,- A,4 | %9
 F,,_D,F,B,- B,4 | F,,C,F,A,- A,4 | F,,C,F,A,- A,4 | F,,C,F,A,- A,4 | F,,_D,F,B,- B,4 | %14
 F,,C,F,A,- A,4 | C,,G,,C,_E,- E,4 | C,,8 | !arpeggio![C,F,G,A,C]8 | F,,_D,F, [B,_D]2 CB,F, | %19
 F,,C,F,[G,A,C]- [G,A,C]4 | F,,C,F,A,- A,4 | F,,C,F,!arpeggio![G,A,C]- [G,A,C]4 | %22
 A,,E,A,!arpeggio![=B,CE]- [B,CE]4 |!mf! B,,D,F,B, A,,D,F,A, | G,,D,G,B,- B,4 | %25
 G,,D,G,!arpeggio![A,B,D]- [A,B,D]G, [DF]2 | [DG]EC[B,D]- [B,D]2 C,2 | F,,C,F,[CF]- [CF]2 [G,B,]2 | %28
 [A,CF]3 [G,B,]- [G,B,]2 [F,A,]2 | _E,,B,,_E,G, B,4 | D,,A,,D,F, A,4 | G,,D,G,=B, DA,B,D | G8 | %33
 !arpeggio![C,F,G,A,C]8 | F,,_D,F,[B,_D]- [B,D]CB,F, | %35
 F,,C,F, z F,,/4A,,/4C,/4E,/4F,/4A,/4C/4E/4 z2 | F,,C,F,A,- A,4 | F,,C,F,[G,A,C]- [G,A,C]4 | %38
 A,,E,A,[=B,CE]- [B,CE]4 | B,,D,F,B, A,,D,F,A, | G,,D,G,B,- B,4 | B,,D,G,[A,B,D]- [A,B,D]G, [DF]2 | %42
 [DG]EC[B,D]- [B,D]2 C,2 | F,,C,F,[CF]- [CF]2 [G,B,]2 | [A,CF]3 [G,B,]- [G,B,]2 [F,A,]2 | %45
 _E,,B,,_E,G, B,4 | D,,A,,D,F, A,4 | G,,D,G,=B, DA,B,D | G6 z2 |] %49
V:4
!p!!<(! [F,,-C,]8 | [F,,_D,]8!<)! |!mp!!>(! [F,,C,]8- | [F,,C,]8!>)! |!p! [F,,-C,]8 | [F,,-_D,]8 | %6
 [F,,C,]8- | [F,,C,]8 | [F,,-C,]8 | [F,,-_D,]8 | [F,,C,]8 | [F,,C,]8 | [F,,-C,]8 | [F,,-_D,]8 | %14
 [F,,C,]8 | [G,,C,]8 | C,,8 | z8 | [F,,_D,]8 | [F,,C,]8 | [F,,C,]8- | [F,,C,]8 | [A,,E,]8 | %23
 [B,,D,]4 [A,,D,]4 | [G,,D,]8 | [G,,D,]6 [D,F,]2 | [D,G,]E,C, [B,,D,]3 C,2 | [F,,C,]6 [G,,B,,]2 | %28
 [C,F,]3 [G,,B,,]- [G,,B,,]2 [F,,A,,]2 | _E,,8 | [D,,A,,]8 | (G,,D,G,=B,) (DA,B,D) | G8 | z8 | %34
!mf! [F,,-_D,]8 | [F,,C,]8 | [F,,C,]8- | [F,,C,]8 | [A,,E,]8 | [B,,F,]4 [A,,D,]4 | [G,,D,]8 | %41
 [G,,D,]6 [D,F,]2 | [D,G,]E,C, [B,,D,]3 C,2 | [F,,C,]6 [G,,B,,]2 | %44
 [C,F,]3 [G,,B,,]- [G,,B,,]2 [F,,A,,]2 | [_E,,B,,]8 | [D,,A,,]8 | (G,,D,G,=B, DA,B,D) | G6 z2 |] %49
V:5
 x8 | x8 | x8 | x8 | x8 | x8 | x8 | x8 | x8 | x8 | x8 | x8 | x8 | x8 | x8 | x8 | x8 | x8 | x8 | %19
 x8 | x8 | x8 | x8 | x8 | x8 | x8 | x8 | x8 | x8 | B,,8 | x8 | [G,,D,]4 ([A,,D,]2 [=B,,D,]2 | %32
 G,,8) | x8 | x8 | x8 | x8 | x8 | x8 | x8 | x8 | x8 | x8 | x8 | x8 | x8 | x8 | x8 | x8 |] %49
V:6
!p!!<(! F,,8- | F,,8!<)! |!mp!!>(! F,,8- | F,,8!>)! |!p! F,,8- | F,,8- | F,,8- | F,,8 | F,,8- | %9
 F,,8- | F,,8 | F,,8 | F,,8- | F,,8- | F,,8 | C,8 | C,,8 | z8 | F,,8- | F,,8 | F,,8- | F,,8 | %22
 A,,8 | B,,4 A,,4 | G,,8 | G,,6 D,2 | D,E,C, B,,3 C,2 | F,,6 B,,2 | A,,3 B,,- B,,2 A,,2 | _E,,8 | %30
 D,,8 | (G,,4 A,,2 =B,,2) | G,,8 | z8 |!mf! F,,8- | F,,8 | F,,8- | F,,8 | A,,8 | B,,4 A,,4 | G,,8 | %41
 G,,6 D,2 | D,E,C, B,,3 C,2 | F,,6 B,,2 | A,,3 B,,- B,,2 A,,2 | _E,,8 | D,,8 | G,,4 D,4 | G,6 z2 |] %49

